X:1
T:Wessex, 86.86.88
T:Wessex, 86.86.88
T:Edward J. Hopkins, 1869
T:Public Domain Courtesy of the Cyber Hymnal™
C:Edward J. Hopkins, 1869
Z:Public Domain
Z:Courtesy of the Cyber Hymnal™
%%score ( 1 2 ) ( 3 4 )
L:1/8
Q:1/4=110
M:4/4
K:Eb
V:1 treble 
V:2 treble 
V:3 bass 
V:4 bass 
V:1
 [EG]2 | [DG]2 [DF]2 E2 [EB]2 | [EB]2 [DA]2 [EG]2 [DF]2 | [EG]2 [FB]2 [Ec]2 [Fe]2 | [Fd]6 [Fd]2 | %5
 [Ee]2 [EB]2 [Ec]2 [EB]2 | [EA]2 [DB]2 [EG]2 [EG]2 | [Ec]2 [EF]2 F3 z E | E6 [EG]2 | %9
 [DG]2 [DG]2 [Gc]2 [Ee]2 | [Ge]3 [Fd] [Ec]2 [EB]2 | [EA]2 [EG]2 [Ec]2 [EF]2 | F3 z E E2 |] %13
V:2
 x2 | x4 E2 x2 | x8 | x8 | x8 | x8 | x8 | x4 E2 D2 x | E6 x2 | x8 | x8 | x8 | E2 (D2 E2) x |] %13
V:3
 [E,B,]2 | [B,,B,]2 [B,,A,]2 [C,G,]2 [G,B,]2 | [F,C]2 [B,,B,]2 [E,B,]2 B,2 | %3
 [E,B,]2 [D,B,]2 [C,B,]2 [C,=A,]2 | [B,,B,]6 [A,B,]2 | [G,B,]2 [E,G,]2 A,2 [G,B,]2 | %6
 [F,C]2 [B,,B,]2 [E,B,]2 [C,E,]2 | [A,,F,]2 [A,,C]2 [B,,B,]2 [B,,A,]2 x | [E,G,]6 [E,B,]2 | %9
 [G,=B,]2 [F,B,]2 [E,C]2 [C,C]2 | [G,C]3 [G,=B,] [G,C]2 [G,,_D]2 | %11
 [A,,C]2 [B,,B,]2 [=A,,F,]2 [A,,C]2 | [B,,B,]2 [B,,A,]2 [E,G,]2 x |] %13
V:4
 x2 | x8 | x6 B,2 | x8 | x8 | x4 A,2 x2 | x8 | x9 | x8 | x8 | x8 | x8 | x7 |] %13

